_includes/icons/ios-trekking.svg

<svg fill="#666" height="50" viewBox="0 0 50 50" width="50" xmlns="http://www.w3.org/2000/svg"><path d="m26.5 2c-3.027344 0-5.5 2.472656-5.5 5.5s2.472656 5.5 5.5 5.5 5.5-2.472656 5.5-5.5-2.472656-5.5-5.5-5.5zm0 2c1.945313 0 3.5 1.554688 3.5 3.5 0 1.945313-1.554687 3.5-3.5 3.5-1.945312 0-3.5-1.554687-3.5-3.5 0-1.945312 1.554688-3.5 3.5-3.5zm-9.5 8c-.710937 0-1.328125.300781-1.839844.71875-.152343.050781-.289062.140625-.398437.257813l-6.378906 6.878906c-.101563.109375-.175782.242187-.21875.382812-.691407.914063-1.164063 2.019532-1.164063 3.261719 0 3.027344 2.472656 5.5 5.5 5.5.914063 0 1.765625-.234375 2.519531-.632812.058594.773437.296875 1.496093.667969 2.132812l-1.878906 6.03125-4.070313 5.824219c-.121093.171875-.183593.378906-.179687.59375-.261719.484375-.558594.957031-.558594 1.550781 0 1.921875 1.578125 3.5 3.5 3.5 1.085938 0 1.988281-.566406 2.628906-1.34375.140625-.078125.257813-.1875.34375-.320312l4.519532-6.800782c.042968-.066406.078125-.136718.105468-.207031l1.3125-3.578125 2.589844 2.210938v6.539062c0 1.921875 1.578125 3.5 3.5 3.5s3.5-1.578125 3.5-3.5v-9.5c0-.769531-.304687-1.46875-.78125-2-.03125-.046875-.066406-.085937-.105469-.125l-4.996093-5.15625 1.445312-5.171875 3.453125 2.691406c.175781.136719.390625.210938.613281.214844.433594.242188.839844.546875 1.371094.546875.339844 0 .625-.132812.921875-.234375h.003906c.164063.003906.324219-.035156.46875-.109375l2.605469-1.324219v22.667969c-.003906.359375.183594.695313.496094.878906.3125.179688.695312.179688 1.007812 0 .3125-.183593.5-.519531.496094-.878906v-23.6875l.992188-.5c1.164062-.414062 2.007812-1.515625 2.007812-2.8125 0-1.644531-1.355469-3-3-3v-3.703125c.003906-.269531-.101562-.527344-.292969-.71875-.191406-.191406-.453125-.296875-.722656-.292969-.550781.007813-.992187.460938-.984375 1.011719v4.359375l-3.824219 1.824219-5.050781-4.601563-.015625-.011718c-.007812-.003907-.011719-.011719-.019531-.015625-.019531-.015625-.03125-.023438-.058594-.046875l-.003906.019531c-.25-.230469-.574219-.347656-.886719-.480469-.128906-.132812-.292969-.226562-.46875-.269531l-3.90625-.976563c-.085937-.019531-.175781-.027343-.265625-.023437-.160156-.03125-.308594-.074219-.5-.074219-.550781 0-1.035156.171875-1.449219.453125-.53125-.867187-1.472656-1.453125-2.550781-1.453125zm0 2c.566406 0 1 .433594 1 1v.640625l-2.378906 9.40625c-.574219 1.15625-1.742188 1.953125-3.121094 1.953125-1.945312 0-3.5-1.554687-3.5-3.5 0-.882812.332031-1.667969.882813-2.296875.035156-.039062.066406-.078125.09375-.125l5.722656-6.171875-.660156-.359375c.40625.222656.914062.132813 1.222656-.210937.191406-.210938.441406-.335938.738281-.335938zm5.074219.90625-.359375.238281 3.082031.769532-.210937-.335938c.140625.230469.371093.390625.632812.449219.191406.042969.355469.132812.484375.261719 0 0 .003906.003906.003906.003906s.003907 0 .003907.003906c.011718.007813.019531.019531.03125.03125.003906 0 .007812.003906.011718.007813v.003906h.003907c.007812.007812.011718.011719.019531.019531l5.550781 5.050781c.296875.273438.734375.339844 1.101563.164063l4.882812-2.328125c.042969-.019531.085938-.046875.128906-.074219.160157-.109375.347657-.171875.558594-.171875.566406 0 1 .433594 1 1 0 .460938-.304687.828125-.722656.953125-.058594.015625-.117188.039063-.171875.066406l-5.347656 2.71875.285156.03125c-.203125-.023437-.40625.015625-.585938.109375-.152343.082032-.300781.121094-.457031.121094-.265625 0-.496094-.101562-.683594-.277344-.019531-.019531-.046875-.039062-.070312-.0625l-4.628906-3.609375c-.261719-.203125-.609375-.265625-.925782-.160156-.320312.101563-.5625.359375-.652343.679688l-2.003907 7.160156c-.09375.34375 0 .710937.246094.964844l5.238281 5.40625-.070312-.210938c.050781.148438.136719.285156.25.394531.1875.1875.300781.429688.300781.714844v9.5c0 .839844-.660156 1.5-1.5 1.5s-1.5-.660156-1.5-1.5v-7c0-.292969-.128906-.570312-.351562-.761719l-3.824219-3.261718c-.105469-.167969-.261719-.296875-.441406-.378907l-3.253907-2.773437c-.003906-.007813-.011718-.011719-.015625-.015625-.679687-.558594-1.113281-1.371094-1.113281-2.308594 0-.378906.078125-.742187.214844-1.09375.074219-.1875.089844-.394531.042969-.589844l.050781.210938 2.582031-10.210938-.09375.046875c.085938-.113281.148438-.25.175781-.390625.023438-.050781.039063-.105468.046875-.160156.089844-.460937.484375-.8125.980469-.8125.066406 0 .144531.011719.253906.042969.28125.074219.578125.023437.820313-.136719zm3.722656 1.464844c.007813.007812.019531.015625.03125.019531l.03125.027344s-.015625-.011719-.015625-.015625c.164063.113281.359375.175781.5625.175781h-.347656zm-8.546875 15.832031 2.535156 2.164063-1.523437 4.160156-3.921875 5.90625.8125.488281c-.226563-.136719-.5-.175781-.757813-.113281-.257812.066406-.480468.230469-.613281.457031-.265625.441406-.730469.734375-1.28125.734375-.839844 0-1.5-.660156-1.5-1.5 0-.351562.125-.667969.34375-.9375.042969-.054687.082031-.113281.113281-.175781l4.078125-5.835938c.0625-.085937.105469-.175781.136719-.273437z"/></svg>

<svg xmlns="http://www.w3.org/2000/svg" viewBox="0 0 50 50" width="50" height="50" fill="#666"><path d="M 26.5 2 C 23.472656 2 21 4.472656 21 7.5 C 21 10.527344 23.472656 13 26.5 13 C 29.527344 13 32 10.527344 32 7.5 C 32 4.472656 29.527344 2 26.5 2 Z M 26.5 4 C 28.445313 4 30 5.554688 30 7.5 C 30 9.445313 28.445313 11 26.5 11 C 24.554688 11 23 9.445313 23 7.5 C 23 5.554688 24.554688 4 26.5 4 Z M 17 12 C 16.289063 12 15.671875 12.300781 15.160156 12.71875 C 15.007813 12.769531 14.871094 12.859375 14.761719 12.976563 L 8.382813 19.855469 C 8.28125 19.964844 8.207031 20.097656 8.164063 20.238281 C 7.472656 21.152344 7 22.257813 7 23.5 C 7 26.527344 9.472656 29 12.5 29 C 13.414063 29 14.265625 28.765625 15.019531 28.367188 C 15.078125 29.140625 15.316406 29.863281 15.6875 30.5 L 13.808594 36.53125 L 9.738281 42.355469 C 9.617188 42.527344 9.554688 42.734375 9.558594 42.949219 C 9.296875 43.433594 9 43.90625 9 44.5 C 9 46.421875 10.578125 48 12.5 48 C 13.585938 48 14.488281 47.433594 15.128906 46.65625 C 15.269531 46.578125 15.386719 46.46875 15.472656 46.335938 L 19.992188 39.535156 C 20.035156 39.46875 20.070313 39.398438 20.097656 39.328125 L 21.410156 35.75 L 24 37.960938 L 24 44.5 C 24 46.421875 25.578125 48 27.5 48 C 29.421875 48 31 46.421875 31 44.5 L 31 35 C 31 34.230469 30.695313 33.53125 30.21875 33 C 30.1875 32.953125 30.152344 32.914063 30.113281 32.875 L 25.117188 27.71875 L 26.5625 22.546875 L 30.015625 25.238281 C 30.191406 25.375 30.40625 25.449219 30.628906 25.453125 C 31.0625 25.695313 31.46875 26 32 26 C 32.339844 26 32.625 25.867188 32.921875 25.765625 C 32.925781 25.765625 32.925781 25.765625 32.925781 25.765625 C 33.089844 25.769531 33.25 25.730469 33.394531 25.65625 L 36 24.332031 L 36 47 C 35.996094 47.359375 36.183594 47.695313 36.496094 47.878906 C 36.808594 48.058594 37.191406 48.058594 37.503906 47.878906 C 37.816406 47.695313 38.003906 47.359375 38 47 L 38 23.3125 L 38.992188 22.8125 C 40.15625 22.398438 41 21.296875 41 20 C 41 18.355469 39.644531 17 38 17 L 38 13.296875 C 38.003906 13.027344 37.898438 12.769531 37.707031 12.578125 C 37.515625 12.386719 37.253906 12.28125 36.984375 12.285156 C 36.433594 12.292969 35.992188 12.746094 36 13.296875 L 36 17.65625 L 32.175781 19.480469 L 27.125 14.878906 L 27.109375 14.867188 C 27.101563 14.863281 27.097656 14.855469 27.089844 14.851563 C 27.070313 14.835938 27.058594 14.828125 27.03125 14.804688 L 27.027344 14.824219 C 26.777344 14.59375 26.453125 14.476563 26.140625 14.34375 C 26.011719 14.210938 25.847656 14.117188 25.671875 14.074219 L 21.765625 13.097656 C 21.679688 13.078125 21.589844 13.070313 21.5 13.074219 C 21.339844 13.042969 21.191406 13 21 13 C 20.449219 13 19.964844 13.171875 19.550781 13.453125 C 19.019531 12.585938 18.078125 12 17 12 Z M 17 14 C 17.566406 14 18 14.433594 18 15 L 18 15.640625 L 15.621094 25.046875 C 15.046875 26.203125 13.878906 27 12.5 27 C 10.554688 27 9 25.445313 9 23.5 C 9 22.617188 9.332031 21.832031 9.882813 21.203125 C 9.917969 21.164063 9.949219 21.125 9.976563 21.078125 L 15.699219 14.90625 L 15.039063 14.546875 C 15.445313 14.769531 15.953125 14.679688 16.261719 14.335938 C 16.453125 14.125 16.703125 14 17 14 Z M 22.074219 14.90625 L 21.714844 15.144531 L 24.796875 15.914063 L 24.585938 15.578125 C 24.726563 15.808594 24.957031 15.96875 25.21875 16.027344 C 25.410156 16.070313 25.574219 16.160156 25.703125 16.289063 C 25.703125 16.289063 25.707031 16.292969 25.707031 16.292969 C 25.707031 16.292969 25.710938 16.292969 25.710938 16.296875 C 25.722656 16.304688 25.730469 16.316406 25.742188 16.328125 C 25.746094 16.328125 25.75 16.332031 25.753906 16.335938 L 25.753906 16.339844 L 25.757813 16.339844 C 25.765625 16.347656 25.769531 16.351563 25.777344 16.359375 L 31.328125 21.410156 C 31.625 21.683594 32.0625 21.75 32.429688 21.574219 L 37.3125 19.246094 C 37.355469 19.226563 37.398438 19.199219 37.441406 19.171875 C 37.601563 19.0625 37.789063 19 38 19 C 38.566406 19 39 19.433594 39 20 C 39 20.460938 38.695313 20.828125 38.277344 20.953125 C 38.21875 20.96875 38.160156 20.992188 38.105469 21.019531 L 32.757813 23.738281 L 33.042969 23.769531 C 32.839844 23.746094 32.636719 23.785156 32.457031 23.878906 C 32.304688 23.960938 32.15625 24 32 24 C 31.734375 24 31.503906 23.898438 31.316406 23.722656 C 31.296875 23.703125 31.269531 23.683594 31.246094 23.660156 L 26.617188 20.050781 C 26.355469 19.847656 26.007813 19.785156 25.691406 19.890625 C 25.371094 19.992188 25.128906 20.25 25.039063 20.570313 L 23.035156 27.730469 C 22.941406 28.074219 23.035156 28.441406 23.28125 28.695313 L 28.519531 34.101563 L 28.449219 33.890625 C 28.5 34.039063 28.585938 34.175781 28.699219 34.285156 C 28.886719 34.472656 29 34.714844 29 35 L 29 44.5 C 29 45.339844 28.339844 46 27.5 46 C 26.660156 46 26 45.339844 26 44.5 L 26 37.5 C 26 37.207031 25.871094 36.929688 25.648438 36.738281 L 21.824219 33.476563 C 21.71875 33.308594 21.5625 33.179688 21.382813 33.097656 L 18.128906 30.324219 C 18.125 30.316406 18.117188 30.3125 18.113281 30.308594 C 17.433594 29.75 17 28.9375 17 28 C 17 27.621094 17.078125 27.257813 17.214844 26.90625 C 17.289063 26.71875 17.304688 26.511719 17.257813 26.316406 L 17.308594 26.527344 L 19.890625 16.316406 L 19.796875 16.363281 C 19.882813 16.25 19.945313 16.113281 19.972656 15.972656 C 19.996094 15.921875 20.011719 15.867188 20.019531 15.8125 C 20.109375 15.351563 20.503906 15 21 15 C 21.066406 15 21.144531 15.011719 21.253906 15.042969 C 21.535156 15.117188 21.832031 15.066406 22.074219 14.90625 Z M 25.796875 16.371094 C 25.804688 16.378906 25.816406 16.386719 25.828125 16.390625 L 25.859375 16.417969 C 25.859375 16.417969 25.84375 16.40625 25.84375 16.402344 C 26.007813 16.515625 26.203125 16.578125 26.40625 16.578125 L 26.058594 16.578125 Z M 17.25 32.203125 L 19.785156 34.367188 L 18.261719 38.527344 L 14.339844 44.433594 L 15.152344 44.921875 C 14.925781 44.785156 14.652344 44.746094 14.394531 44.808594 C 14.136719 44.875 13.914063 45.039063 13.78125 45.265625 C 13.515625 45.707031 13.050781 46 12.5 46 C 11.660156 46 11 45.339844 11 44.5 C 11 44.148438 11.125 43.832031 11.34375 43.5625 C 11.386719 43.507813 11.425781 43.449219 11.457031 43.386719 L 15.535156 37.550781 C 15.597656 37.464844 15.640625 37.375 15.671875 37.277344 Z"/></svg>
